assets/icons/supported_selectable_icons/logos/financial_institutions/711.svg

<svg xmlns="http://www.w3.org/2000/svg" width="512" height="512" fill="none"><path fill="#fff" d="M0 0h512v512H0z"/><path fill="#00586F" d="M202.777 208.588c.141-4.228-3.326-7.991-10.612-8.132-5.172-.07-8.977 1.705-9.343 5.947-.282 3.538.93 4.228 3.255 5.158 1.212 1.283 10.964 2.819 12.951 3.185 2.819.493 8.907 1.776 12.162 5.102 5.947 6.214 3.185 18.461-3.255 22.632-4.383 2.819-10.401 3.538-16.122 3.608-2.622.07-8.836-.846-12.684-3.608a17.93 17.93 0 0 1-7.173-13.303h10.33a7.65 7.65 0 0 0 2.199 5.299c2.339 2.41 6.158 3.199 9.681 3.044s6.863-1.128 8.216-2.396a6.14 6.14 0 0 0 .212-8.695c-3.397-3.551-13.586-3.551-20.237-5.806-5.637-1.917-10.175-5.947-9.33-14.29s6.793-14.29 19.378-14.29c2.818 0 12.373.211 17.404 6.581 2.692 3.467 3.396 8.273 2.973 9.964zm39.121 35.865a6.2 6.2 0 0 1-1.057-3.819c-3.467 3.256-6.511 5.454-12.317 5.454-7.779 0-11.598-4.383-11.274-11.81.211-5.383 2.339-10.611 11.105-12.105a39.7 39.7 0 0 0 9.977-1.762 4.09 4.09 0 0 0 2.48-4.312c0-2.41-1.987-3.481-6.51-3.481-5.637 0-6.37 3.481-6.511 6.229h-9.329c.141-12.232 10.625-13.36 15.854-13.36a26 26 0 0 1 9.047 1.41c3.819 1.564 6.863 4.664 6.863 10.752v20.942c.023.867.231 1.719.611 2.499.379.78.92 1.471 1.588 2.024v1.41zm-1.128-18.024c-2.818 1.691-6.651 1.55-9.202 2.043a4.99 4.99 0 0 0-4.313 6.229c.564 2.255 2.34 3.89 6.582 3.171 5.876-.916 6.933-5.017 6.933-9.259zm13.289-20.293h5.384v-3.693c0-5.735 2.818-9.554 9.329-9.554h6.158v7.356h-3.466c-1.41 0-2.114.845-2.114 2.621v3.27h5.862v6.581h-5.862v31.736h-9.865v-31.736h-5.383zm25.452-.015h9.864v7.427h.141c.634-2.269 1.128-3.607 4.594-6.017a9 9 0 0 1 7.047-2.044v10.105c-4.228-.494-10.612-1.057-11.81 7.286v21.575h-9.865zm48.098 38.332a6.2 6.2 0 0 1-1.057-3.762c-3.467 3.255-6.511 5.453-12.303 5.453-7.793 0-11.612-4.382-11.274-11.809.211-5.384 2.339-10.612 11.105-12.106 3.387-.158 6.74-.75 9.977-1.761a4.09 4.09 0 0 0 2.481-4.313c0-2.409-1.988-3.48-6.511-3.48-5.637 0-6.37 3.48-6.511 6.228h-9.329c.141-12.232 10.611-13.359 15.84-13.359 3.08-.068 6.147.409 9.061 1.409 3.819 1.564 6.849 4.665 6.849 10.753v20.885a6.1 6.1 0 0 0 2.199 4.523v1.41zm-1.128-18.024c-2.818 1.691-6.652 1.55-9.202 2.043a5 5 0 0 0-2.027.669 4.98 4.98 0 0 0-2.373 3.428 5 5 0 0 0 .087 2.132c.564 2.255 2.34 3.89 6.582 3.171 5.862-.916 6.933-5.017 6.933-9.259zM91.375 267.96h36.993v9.033H102.17v12.091h22.985v9.048H102.17v21.871H91.375zm51.1 8.948h-10.246v-9.315h10.246zm-10.246 4.524h10.246v38.571h-10.246zm48.408 2.297c2.523 2.086 3.777 5.525 3.777 10.358v25.916h-10.428V296.61a11 11 0 0 0-.79-4.651c-.972-1.973-2.818-2.959-5.566-2.959a6.88 6.88 0 0 0-6.948 4.34 15.4 15.4 0 0 0-.958 5.849v20.814h-10.006v-38.444h9.78v5.637a16.2 16.2 0 0 1 3.65-4.228 12.52 12.52 0 0 1 7.808-2.339c3.498-.151 6.933.96 9.681 3.128m25.804 12.811a15.5 15.5 0 0 0 4.016-.888 3.03 3.03 0 0 0 2.156-2.819 3.35 3.35 0 0 0-1.677-3.269 10.3 10.3 0 0 0-4.876-.987 6.46 6.46 0 0 0-5.115 1.762 7.05 7.05 0 0 0-1.41 3.509h-9.681a14.54 14.54 0 0 1 2.818-8.244q4.017-5.031 13.741-5.045c3.902-.07 7.765.785 11.274 2.494 3.283 1.649 4.918 4.806 4.918 9.442v22.111a5.26 5.26 0 0 0 .62 2.692c.376.537.9.953 1.508 1.198v1.409h-10.992a11.3 11.3 0 0 1-.635-2.142c-.126-.677-.211-1.409-.295-2.311a20 20 0 0 1-4.806 3.861 14.45 14.45 0 0 1-7.385 1.874 12.68 12.68 0 0 1-8.652-2.987 10.71 10.71 0 0 1-3.411-8.456q0-7.13 5.496-10.315a24.6 24.6 0 0 1 8.907-2.396zm6.13 4.721c-.609.4-1.262.731-1.945.986-.879.316-1.784.552-2.706.705l-2.283.422a14.5 14.5 0 0 0-4.608 1.41 4.64 4.64 0 0 0-1.792 1.82 4.64 4.64 0 0 0-.561 2.492 4.57 4.57 0 0 0 1.409 3.763 5.54 5.54 0 0 0 3.537 1.169c2.167 0 4.28-.675 6.046-1.93q2.818-1.917 2.818-7.047zm47.295-17.56c2.494 2.058 3.692 5.525 3.692 10.358v25.916h-10.414V296.61a10.8 10.8 0 0 0-.79-4.651 5.635 5.635 0 0 0-5.552-2.959 6.9 6.9 0 0 0-4.162 1.042 6.9 6.9 0 0 0-2.743 3.298 15.4 15.4 0 0 0-.959 5.849v20.814h-10.076v-38.444h9.865v5.637a16.7 16.7 0 0 1 3.692-4.228 12.6 12.6 0 0 1 7.821-2.339 14.7 14.7 0 0 1 9.696 3.128m33.47 11.613a9.4 9.4 0 0 0-1.409-3.932 6.1 6.1 0 0 0-5.299-2.354 7.05 7.05 0 0 0-7.046 5.102 20.7 20.7 0 0 0-1.001 7.046 18.9 18.9 0 0 0 1.001 6.779 6.68 6.68 0 0 0 6.764 4.833 5.99 5.99 0 0 0 5.017-1.916 9.64 9.64 0 0 0 1.719-4.947h10.26a17.1 17.1 0 0 1-3.214 8.695c-3.128 4.426-7.807 6.61-13.951 6.61s-10.696-1.818-13.614-5.496a22.3 22.3 0 0 1-4.368-14.276q0-9.864 4.848-15.389t13.402-5.524a20.18 20.18 0 0 1 11.894 3.255c3.072 2.17 4.918 6.004 5.468 11.514zm39.614-13.163c2.699 1.216 5 3.17 6.638 5.637a18.9 18.9 0 0 1 3.044 7.948c.313 2.534.426 5.088.338 7.639h-27.988q.253 5.862 4.045 8.216a10.1 10.1 0 0 0 5.552 1.409 8.54 8.54 0 0 0 5.637-1.762 8.9 8.9 0 0 0 2.072-2.663h10.118a12.42 12.42 0 0 1-3.706 6.947q-5.158 5.637-14.417 5.637a20.82 20.82 0 0 1-13.487-4.735q-5.834-4.735-5.848-15.501 0-9.992 5.285-15.333a18.32 18.32 0 0 1 13.726-5.355 22 22 0 0 1 9.005 1.789m-15.079 8.738a9.87 9.87 0 0 0-2.692 5.806h17.447a8.1 8.1 0 0 0-.729-3.24 8.1 8.1 0 0 0-1.963-2.679 9.17 9.17 0 0 0-6.003-2.015 8.3 8.3 0 0 0-6.06 2.128m38.064-13.91H345.76v-9.315h10.259zm-10.259 4.524h10.259v38.571H345.76zm38.783-.817q.43.032.859 0v10.245c-.62 0-1.184-.07-1.691-.07h-1.184q-6.06 0-8.131 3.945a15.15 15.15 0 0 0-1.17 6.835v18.321h-10.048v-38.459h9.499v6.793a21.2 21.2 0 0 1 4.058-5.257 11.02 11.02 0 0 1 7.342-2.367h.466m19.405 15.967a16 16 0 0 0 4.03-.888 3.03 3.03 0 0 0 2.143-2.847 3.37 3.37 0 0 0-1.663-3.269 10.4 10.4 0 0 0-4.89-.917 6.47 6.47 0 0 0-5.116 1.762 7.15 7.15 0 0 0-1.409 3.509h-9.682a14.44 14.44 0 0 1 2.819-8.244q4.016-5.031 13.754-5.045a24.7 24.7 0 0 1 11.274 2.494c3.283 1.649 4.918 4.806 4.918 9.442v17.658c0 1.226 0 2.706.085 4.453a5.4 5.4 0 0 0 .606 2.692c.385.534.912.949 1.522 1.198v1.409h-10.992a11.4 11.4 0 0 1-.649-2.142 23 23 0 0 1-.267-2.311 21 21 0 0 1-4.82 3.861 14.5 14.5 0 0 1-7.37 1.875 12.68 12.68 0 0 1-8.667-2.988 10.62 10.62 0 0 1-3.411-8.455q0-7.131 5.496-10.316a24.6 24.6 0 0 1 8.85-2.438zm6.173 4.721c-.615.4-1.272.731-1.959.986-.879.317-1.784.553-2.706.705l-2.283.422a14.5 14.5 0 0 0-4.594 1.41 4.65 4.65 0 0 0-2.354 4.312 4.58 4.58 0 0 0 1.41 3.763 5.5 5.5 0 0 0 3.509 1.169 10.4 10.4 0 0 0 6.059-1.93q2.819-1.917 2.819-7.047z"/></svg>

<svg width="512" height="512" viewBox="0 0 512 512" fill="none" xmlns="http://www.w3.org/2000/svg">
<rect width="512" height="512" fill="white"/>
<path d="M202.777 208.588C202.918 204.36 199.451 200.597 192.165 200.456C186.993 200.386 183.188 202.161 182.822 206.403C182.54 209.941 183.752 210.631 186.077 211.561C187.289 212.844 197.041 214.38 199.028 214.746C201.847 215.239 207.935 216.522 211.19 219.848C217.137 226.062 214.375 238.309 207.935 242.48C203.552 245.299 197.534 246.018 191.813 246.088C189.191 246.158 182.977 245.242 179.129 242.48C177.037 240.919 175.311 238.919 174.072 236.622C172.833 234.324 172.111 231.783 171.956 229.177H182.286C182.304 231.161 183.092 233.061 184.485 234.476C186.824 236.886 190.643 237.675 194.166 237.52C197.689 237.365 201.029 236.392 202.382 235.124C202.968 234.567 203.438 233.901 203.765 233.162C204.093 232.424 204.271 231.628 204.291 230.82C204.311 230.013 204.171 229.209 203.88 228.456C203.588 227.702 203.151 227.013 202.594 226.429C199.197 222.878 189.008 222.878 182.357 220.623C176.72 218.706 172.182 214.676 173.027 206.333C173.873 197.99 179.82 192.043 192.405 192.043C195.223 192.043 204.778 192.254 209.809 198.624C212.501 202.091 213.205 206.897 212.782 208.588H202.777Z" fill="#00586F"/>
<path d="M241.898 244.453C241.138 243.33 240.767 241.988 240.841 240.634C237.374 243.89 234.33 246.088 228.524 246.088C220.745 246.088 216.926 241.705 217.25 234.278C217.461 228.895 219.589 223.667 228.355 222.173C231.742 222.014 235.095 221.422 238.332 220.411C239.163 220.066 239.856 219.456 240.304 218.676C240.752 217.896 240.931 216.991 240.812 216.099C240.812 213.689 238.825 212.618 234.302 212.618C228.665 212.618 227.932 216.099 227.791 218.847H218.462C218.603 206.615 229.087 205.487 234.316 205.487C237.391 205.418 240.455 205.895 243.363 206.897C247.182 208.461 250.226 211.561 250.226 217.649V238.591C250.249 239.458 250.457 240.31 250.837 241.09C251.216 241.87 251.757 242.561 252.425 243.114V244.524L241.898 244.453ZM240.77 226.429C237.952 228.12 234.119 227.979 231.568 228.472C230.852 228.546 230.16 228.774 229.541 229.141C228.922 229.507 228.389 230.003 227.979 230.595C227.569 231.187 227.293 231.86 227.168 232.569C227.043 233.278 227.073 234.005 227.255 234.701C227.819 236.956 229.595 238.591 233.837 237.872C239.713 236.956 240.77 232.855 240.77 228.613V226.429Z" fill="#00586F"/>
<path d="M254.059 206.136H259.443V202.443C259.443 196.708 262.261 192.889 268.772 192.889H274.93V200.245H271.464C270.054 200.245 269.35 201.09 269.35 202.866V206.136H275.212V212.717H269.35V244.453H259.485V212.717H254.102L254.059 206.136Z" fill="#00586F"/>
<path d="M279.511 206.121H289.375V213.548H289.516C290.15 211.279 290.644 209.941 294.11 207.531C295.076 206.715 296.202 206.111 297.416 205.759C298.63 205.407 299.905 205.314 301.157 205.487V215.592C296.929 215.098 290.545 214.535 289.347 222.878V244.453H279.482L279.511 206.121Z" fill="#00586F"/>
<path d="M327.609 244.453C326.861 243.345 326.49 242.026 326.552 240.691C323.085 243.946 320.041 246.144 314.249 246.144C306.456 246.144 302.637 241.762 302.975 234.335C303.186 228.951 305.314 223.723 314.08 222.229C317.467 222.071 320.82 221.479 324.057 220.468C324.888 220.122 325.581 219.512 326.029 218.732C326.478 217.953 326.656 217.047 326.538 216.155C326.538 213.746 324.55 212.675 320.027 212.675C314.39 212.675 313.657 216.155 313.516 218.903H304.187C304.328 206.671 314.798 205.544 320.027 205.544C323.107 205.476 326.174 205.953 329.088 206.953C332.907 208.517 335.937 211.618 335.937 217.706V238.591C335.96 239.458 336.168 240.31 336.547 241.09C336.927 241.87 337.468 242.561 338.136 243.114V244.524L327.609 244.453ZM326.481 226.429C323.663 228.12 319.829 227.979 317.279 228.472C316.563 228.546 315.871 228.774 315.252 229.141C314.632 229.507 314.1 230.003 313.69 230.595C313.28 231.187 313.004 231.86 312.879 232.569C312.754 233.278 312.784 234.005 312.966 234.701C313.53 236.956 315.306 238.591 319.548 237.872C325.41 236.956 326.481 232.855 326.481 228.613V226.429Z" fill="#00586F"/>
<path d="M91.375 267.96H128.368V276.993H102.17V289.084H125.155V298.132H102.17V320.003H91.375V267.96Z" fill="#00586F"/>
<path d="M142.475 276.908H132.229V267.593H142.475V276.908ZM132.229 281.432H142.475V320.003H132.229V281.432Z" fill="#00586F"/>
<path d="M180.637 283.729C183.16 285.815 184.414 289.254 184.414 294.087V320.003H173.986V296.61C174.062 295.021 173.793 293.434 173.196 291.959C172.224 289.986 170.378 289 167.63 289C166.159 288.883 164.69 289.241 163.439 290.023C162.188 290.804 161.222 291.967 160.682 293.34C159.986 295.209 159.661 297.196 159.724 299.189V320.003H149.718V281.559H159.498V287.196C160.46 285.585 161.695 284.155 163.148 282.968C165.417 281.339 168.165 280.516 170.956 280.629C174.454 280.478 177.889 281.589 180.637 283.757" fill="#00586F"/>
<path d="M206.441 296.568C207.813 296.451 209.164 296.153 210.457 295.68C211.067 295.496 211.604 295.125 211.991 294.619C212.378 294.113 212.596 293.498 212.613 292.861C212.682 292.212 212.56 291.557 212.262 290.976C211.964 290.396 211.504 289.914 210.936 289.592C209.416 288.869 207.742 288.53 206.06 288.605C205.131 288.511 204.192 288.62 203.309 288.924C202.426 289.228 201.619 289.721 200.945 290.367C200.164 291.386 199.677 292.6 199.535 293.876H189.854C189.929 290.904 190.912 288.027 192.672 285.632C195.35 282.278 199.93 280.596 206.413 280.587C210.315 280.517 214.178 281.372 217.687 283.081C220.97 284.73 222.605 287.887 222.605 292.523V310.181C222.605 311.407 222.605 312.887 222.605 314.634C222.568 315.571 222.782 316.5 223.225 317.326C223.601 317.863 224.125 318.279 224.733 318.524V319.933H213.741C213.459 319.242 213.246 318.524 213.106 317.791C212.98 317.114 212.895 316.382 212.811 315.48C211.418 317.007 209.797 318.31 208.005 319.341C205.755 320.615 203.205 321.262 200.62 321.215C197.465 321.331 194.379 320.266 191.968 318.228C190.812 317.156 189.907 315.843 189.318 314.381C188.728 312.919 188.469 311.346 188.557 309.772C188.557 305.018 190.389 301.58 194.053 299.457C196.844 298.103 199.866 297.29 202.96 297.061L206.441 296.568ZM212.571 301.289C211.962 301.689 211.309 302.02 210.626 302.275C209.747 302.591 208.842 302.827 207.92 302.98L205.637 303.402C204.033 303.611 202.476 304.087 201.029 304.812C200.273 305.239 199.652 305.87 199.237 306.632C198.821 307.394 198.626 308.257 198.676 309.124C198.608 309.817 198.7 310.517 198.944 311.169C199.188 311.821 199.579 312.409 200.085 312.887C201.094 313.673 202.343 314.087 203.622 314.056C205.789 314.056 207.902 313.381 209.668 312.126C211.547 310.848 212.486 308.499 212.486 305.079L212.571 301.289Z" fill="#00586F"/>
<path d="M259.866 283.729C262.36 285.787 263.558 289.254 263.558 294.087V320.003H253.144V296.61C253.227 295.02 252.957 293.432 252.354 291.959C251.828 290.97 251.018 290.16 250.029 289.633C249.04 289.106 247.917 288.885 246.802 289C245.339 288.896 243.881 289.261 242.64 290.042C241.398 290.822 240.438 291.977 239.897 293.34C239.201 295.209 238.875 297.196 238.938 299.189V320.003H228.862V281.559H238.727V287.196C239.71 285.588 240.958 284.158 242.419 282.968C244.694 281.341 247.446 280.518 250.24 280.629C253.742 280.482 257.181 281.592 259.936 283.757" fill="#00586F"/>
<path d="M293.406 295.37C293.238 293.97 292.757 292.626 291.997 291.438C291.378 290.637 290.57 290.002 289.645 289.592C288.72 289.181 287.707 289.006 286.698 289.084C285.122 289.023 283.571 289.493 282.293 290.418C281.016 291.343 280.086 292.67 279.652 294.186C278.915 296.459 278.576 298.843 278.651 301.232C278.568 303.534 278.907 305.831 279.652 308.011C280.067 309.462 280.962 310.73 282.19 311.608C283.419 312.486 284.908 312.922 286.416 312.844C287.344 312.938 288.28 312.813 289.151 312.48C290.022 312.147 290.804 311.616 291.433 310.928C292.451 309.469 293.047 307.757 293.152 305.981H303.412C303.162 309.12 302.05 312.129 300.198 314.676C297.07 319.102 292.391 321.286 286.247 321.286C280.102 321.286 275.551 319.468 272.633 315.79C269.581 311.674 268.038 306.633 268.265 301.514C268.265 294.938 269.881 289.808 273.113 286.125C276.344 282.442 280.812 280.601 286.515 280.601C290.722 280.418 294.881 281.557 298.409 283.856C301.481 286.026 303.327 289.86 303.877 295.37H293.406Z" fill="#00586F"/>
<path d="M333.02 282.207C335.719 283.423 338.02 285.377 339.658 287.844C341.265 290.227 342.306 292.946 342.702 295.792C343.015 298.326 343.128 300.88 343.04 303.431H315.052C315.221 307.339 316.569 310.078 319.097 311.647C320.772 312.644 322.701 313.133 324.649 313.056C326.678 313.158 328.676 312.533 330.286 311.294C331.14 310.546 331.843 309.642 332.358 308.631H342.476C342.027 311.287 340.726 313.726 338.77 315.578C335.331 319.336 330.526 321.215 324.353 321.215C319.44 321.278 314.662 319.601 310.866 316.48C306.977 313.324 305.027 308.156 305.018 300.979C305.018 294.317 306.78 289.207 310.303 285.646C312.095 283.852 314.241 282.449 316.604 281.528C318.967 280.606 321.495 280.185 324.029 280.291C327.123 280.248 330.191 280.858 333.034 282.08M317.955 290.818C316.438 292.4 315.49 294.443 315.263 296.624H332.71C332.693 295.505 332.445 294.402 331.981 293.384C331.518 292.365 330.85 291.453 330.018 290.705C328.32 289.342 326.192 288.628 324.015 288.69C322.914 288.623 321.811 288.777 320.77 289.143C319.73 289.508 318.773 290.078 317.955 290.818Z" fill="#00586F"/>
<path d="M356.019 276.908H345.76V267.593H356.019V276.908ZM345.76 281.432H356.019V320.003H345.76V281.432Z" fill="#00586F"/>
<path d="M384.543 280.615C384.829 280.636 385.116 280.636 385.402 280.615V290.86C384.782 290.86 384.218 290.79 383.711 290.79H382.527C378.487 290.79 375.777 292.105 374.396 294.735C373.483 296.893 373.082 299.232 373.226 301.57V319.891H363.178V281.432H372.677V288.225C373.744 286.27 375.114 284.496 376.735 282.968C378.817 281.32 381.425 280.479 384.077 280.601H384.543" fill="#00586F"/>
<path d="M403.948 296.568C405.324 296.449 406.679 296.15 407.978 295.68C408.59 295.492 409.127 295.116 409.512 294.604C409.897 294.093 410.11 293.473 410.121 292.833C410.189 292.186 410.068 291.532 409.773 290.952C409.478 290.372 409.021 289.889 408.458 289.564C406.925 288.868 405.248 288.554 403.568 288.647C402.638 288.554 401.7 288.664 400.817 288.968C399.934 289.272 399.127 289.764 398.452 290.409C397.676 291.431 397.189 292.643 397.043 293.918H387.361C387.43 290.945 388.414 288.066 390.18 285.674C392.857 282.32 397.442 280.638 403.934 280.629C407.836 280.557 411.7 281.412 415.208 283.123C418.491 284.772 420.126 287.929 420.126 292.565V310.223C420.126 311.449 420.126 312.929 420.211 314.676C420.177 315.611 420.386 316.538 420.817 317.368C421.202 317.902 421.729 318.317 422.339 318.566V319.975H411.347C411.061 319.284 410.843 318.567 410.698 317.833C410.57 317.068 410.481 316.296 410.431 315.522C409.023 317.04 407.399 318.341 405.611 319.383C403.364 320.652 400.82 321.299 398.241 321.258C395.08 321.377 391.989 320.312 389.574 318.27C388.413 317.202 387.505 315.889 386.915 314.427C386.326 312.964 386.069 311.389 386.163 309.815C386.163 305.061 387.995 301.622 391.659 299.499C394.431 298.139 397.433 297.312 400.509 297.061L403.948 296.568ZM410.121 301.289C409.506 301.689 408.849 302.02 408.162 302.275C407.283 302.592 406.378 302.828 405.456 302.98L403.173 303.402C401.574 303.613 400.021 304.089 398.579 304.812C397.823 305.239 397.202 305.87 396.786 306.632C396.37 307.394 396.176 308.257 396.225 309.124C396.158 309.817 396.25 310.517 396.494 311.169C396.738 311.821 397.128 312.409 397.635 312.887C398.634 313.669 399.874 314.082 401.144 314.056C403.316 314.061 405.435 313.386 407.203 312.126C409.082 310.848 410.022 308.499 410.022 305.079L410.121 301.289Z" fill="#00586F"/>
</svg>
